icon-themes/sifr_svg/cmd/sc_setminimalrowheight.svg

<svg viewBox="0 0 16 16" xmlns="http://www.w3.org/2000/svg"><path d="m0 4v8h16v-8zm2 2h3v4h-3zm4 0h4v4h-4zm5 0h3v4h-3z" fill="#555753"/></svg>

<svg xmlns="http://www.w3.org/2000/svg" viewBox="0 0 16 16">
  <path
   style="fill:#555753"
   d="M 0 4 L 0 12 L 16 12 L 16 4 L 0 4 z M 2 6 L 5 6 L 5 10 L 2 10 L 2 6 z M 6 6 L 10 6 L 10 10 L 6 10 L 6 6 z M 11 6 L 14 6 L 14 10 L 11 10 L 11 6 z "
   />
</svg>
